src/actions/32/labplot-zoom-out-x.svg

<svg viewBox="0 0 32 32" xmlns="http://www.w3.org/2000/svg">
 <defs>
  <style type="text/css">.ColorScheme-Text {
        color:#2e3440;
      }</style>
 </defs>
 <path class="ColorScheme-Text" d="m4 4v1 3h1v-3h3v-1h-4zm6 0v1h3v3h1v-4h-4zm6 0v1h11v22h-11v1h12v-1-23h-1-11zm-12 6v4h1 3v-1h-3v-3h-1zm9 0v3h-3v1h3 1v-1-3h-1zm-4 8-5 5 5 5 0.70703-0.70703-3.793-3.793h11.086v-1h-11.086l3.793-3.793-0.70703-0.70703z" fill="currentColor"/>
</svg>

<svg xmlns="http://www.w3.org/2000/svg" viewBox="0 0 32 32">
  <defs id="defs3051">
    <style type="text/css" id="current-color-scheme">
      .ColorScheme-Text {
        color:#2e3440;
      }
      </style>
  </defs>
 <path style="fill:currentColor;fill-opacity:1;stroke:none" 
       d="M 4 4 L 4 5 L 4 8 L 5 8 L 5 5 L 8 5 L 8 4 L 4 4 z M 10 4 L 10 5 L 13 5 L 13 8 L 14 8 L 14 4 L 10 4 z M 16 4 L 16 5 L 27 5 L 27 27 L 16 27 L 16 28 L 28 28 L 28 27 L 28 4 L 27 4 L 16 4 z M 4 10 L 4 14 L 5 14 L 8 14 L 8 13 L 5 13 L 5 10 L 4 10 z M 13 10 L 13 13 L 10 13 L 10 14 L 13 14 L 14 14 L 14 13 L 14 10 L 13 10 z M 9 18 L 4 23 L 5 24 L 9 28 L 9.7070312 27.292969 L 5.9140625 23.5 L 17 23.5 L 17 22.5 L 5.9140625 22.5 L 9.7070312 18.707031 L 9 18 z "
     class="ColorScheme-Text"
     />
</svg>
